X:1
T:Minuet
T:Minuet
T:Franz Joseph Haydn
C:Franz Joseph Haydn
%%score 1 2
L:1/8
Q:1/4=120
M:3/4
K:G
V:1 treble 
V:2 bass 
V:1
"^f" (D2 | G2) G2 G2 | G2 (DGBG | A2) A2 A2 | A2 (DAcA | B2) d2 d2 | (dgfe d2) | %7
 ([Bd]2 [Ac]2) [GB]2 | ([GB]2 [FA]2) ::"^mp" (D2 | d2) d2 d2 | d2 (E^GBd | c2) c2 c2 | c2 (DFAc | %14
"^cresc." B2) d2 d2 | (dgfe d2) | (3(edc B2) A2 |"^f" G4 :| %18
V:2
 z2 | (G,,2 G,2 A,2 | B,2 G,2) z2 | (D,,2 D,2 E,2 | F,2 D,2) z2 | (G,,2 G,2 A,2 | B,2) z2 z2 | %7
 (G,2 C,2) ^C,2 | D,2 D,,2 :: z2 | z2 (B,2 A,2 | ^G,2) z2 z2 | z2 (A,2 =G,2 | F,2) z2 z2 | %14
 (G,,2 G,2 A,2 | B,2) z2 G,2 | C,2 D,2 D,,2 | G,,4 :| %18

